src/main/resources/static/css/primeicons/raw-svg/sort-alt.svg

<?xml version="1.0" encoding="UTF-8"?>
<svg id="sort-alt" xmlns="http://www.w3.org/2000/svg" viewBox="0 0 24 24">
  <path d="M10.5,8.25c-.19,0-.38-.07-.53-.22l-1.97-1.97-1.97,1.97c-.29,.29-.77,.29-1.06,0s-.29-.77,0-1.06l2.5-2.5c.29-.29,.77-.29,1.06,0l2.5,2.5c.29,.29,.29,.77,0,1.06-.15,.15-.34,.22-.53,.22Z"/>
  <path d="M8,19.75c-.41,0-.75-.34-.75-.75V5c0-.41,.34-.75,.75-.75s.75,.34,.75,.75v14c0,.41-.34,.75-.75,.75Z"/>
  <path d="M16,19.75c-.19,0-.38-.07-.53-.22l-2.5-2.5c-.29-.29-.29-.77,0-1.06s.77-.29,1.06,0l1.97,1.97,1.97-1.97c.29-.29,.77-.29,1.06,0s.29,.77,0,1.06l-2.5,2.5c-.15,.15-.34,.22-.53,.22Z"/>
  <path d="M16,19.75c-.41,0-.75-.34-.75-.75V5c0-.41,.34-.75,.75-.75s.75,.34,.75,.75v14c0,.41-.34,.75-.75,.75Z"/>
</svg>

<svg xmlns="http://www.w3.org/2000/svg" viewBox="0 0 24 24"><g id="sort-alt"><path d="M10.5,8.25A.74.74,0,0,1,10,8l-2-2L6,8A.75.75,0,1,1,5,7l2.5-2.5a.75.75,0,0,1,1.06,0L11,7A.75.75,0,0,1,11,8,.74.74,0,0,1,10.5,8.25Z"/><path d="M8,19.75A.76.76,0,0,1,7.25,19V5a.75.75,0,0,1,1.5,0V19A.76.76,0,0,1,8,19.75Z"/><path d="M16,19.75a.74.74,0,0,1-.53-.22L13,17A.75.75,0,1,1,14,16l2,2,2-2A.75.75,0,1,1,19,17l-2.5,2.5A.74.74,0,0,1,16,19.75Z"/><path d="M16,19.75a.76.76,0,0,1-.75-.75V5a.75.75,0,0,1,1.5,0V19A.76.76,0,0,1,16,19.75Z"/></g></svg>
